X: 1
T: MOLL ROE'S -- JIG
B: Ryan's Mammoth Collection of Fiddle Tunes
R: jig
M: 9/8
L: 1/8
Z: Contributed 20010701013610 by John Chambers jmchambers:rcn.net
K: Gm
uD \
| DGG ABG FGA | BGB cAB c2A | DGG ABG FGA | ded cAF G2 :|
|: d \
| dBd cAG FGA | dBd cAB c2e | dBd cAG FGA | BdB cAF G2 :|
